X: 2
T:Ashgrove
M:3/4
L:1/8
R:Waltz
K:G
D2|:G2 B2 dc|B2 G2 G2|A2 cB AG|F2 D2 D2|
G2 BA GF|E2 C2 E2|D2 G2 F2|1 G4 D2:|2 G4 Bc|
|:d2 Bc de|d2 c2 B2|c2 AB cd|c2 B2 A2|
B2 GA Bc|B2 A2 G2|A2 d2 e2|d4  D2|
G2 B2 dc|B2 G2 G2|A2 cB AG|F2 D2 D2|
G2 BA GF|E2 C2 E2|D2 G2 F2|1 G4 Bc|2 G4 D2||
% Output from ABC2Win  Version 2.1 i on 29/01/2006
